**kern	**kern
*part1	*part1
*staff2	*staff1
*I"Piano	*
*clefF4	*clefG2
*k[b-e-a-d-g-]	*k[b-e-a-d-g-]
=1	=1
*^	*
16ee-LL>	8C	(8.ee-
16a->	.	.
16e-JJ>	16r	.
16e-LL	16ryy	8.cc
16A-	8ryy	.
16E-JJ	.	.
=	=	=
16gLL>	8C-X	4gn
16dn>	.	.
16c-XJJ>	16r	.
16dnLL	16ryy	.
16A-	8ryy	8a-)
16FJJ	.	.
=	=	=
16dd-LL>	8BB-	(8.dd-
16g-X>	.	.
16d-JJ>	16r	.
16d-LL	16ryy	[8.g-
16G-	8ryy	.
16D-JJ	.	.
=	=	=
16f#XLL>	8BBB-	4f#X]
16cn> 16en>	.	.
16GnJJ>	16r	.
16cLL	16ryy	.
16En 16Gn	8ryy	8gn)
16CJJ	.	.
=	=	=
16ccLL>	8AA-	(8.cc
16f>	.	.
16cJJ>	16r	.
16c-XLL	16ryy	8.cc-X
16Dn 16F	8ryy	.
16AA-JJ	.	.
=	=	=
16b-LL>	8GG-X	8.b-
16e->	.	.
16B-JJ>	16r	.
16cnLL	16ryy	8.a-)
16G-	8ryy	.
16AA-JJ	.	.
=:|!	=:|!	=:|!
16ee-LL>	8DD-	(8.ee-
16a->	.	.
16e-JJ>	16r	.
16e-LL	16ryy	8.cc
16A-	8ryy	.
16E-JJ	.	.
*v	*v	*
=	=
*-	*-
!!!system-decoration: {(s1,s2)}
!!!RDF**kern: > = above
